X: 10097
T: SCOTT'S POLKA
C: Bob McQuillen 4 Apr 93
B: Bob's Note Book 10 #97
%R: polka
Z: 2020 John Chambers <jc:trillian.mit.edu>
M: C
L: 1/8
K: D
FG \
| ABAF D2FA | B2G2 GBed | cdcB A2fg | fedB AGFG |\
| ABAF DFAd | B2G2 GBed | cdcB A2Bc | d2D2 D2  :|
|: de \
| f2d2 dfag | f2df edcB | ABcd cdef | edcB ABde |\
| f2d2 dfag | f2df edcB | ABcd cdeg | f2d2 d2  :|
%%begintext align
%% Scott Buffum lives
%% over in Antrim - He's one of my school-boy friends
%% and last year he shot a big deer and brought me over
%% a big deer liver - Thanks, Scotty. It sure was good!
%%endtext

%%sep 1 1 500

%%sep 1 1 500

